X:1
T:'A VUCCHELLA
T:'A VUCCHELLA
T:Arietta di Posillipo
T:Francesco Paolo Tosti
T:Gabriele d'Annunzio
T:by IMSLP
T:by IMSLP
T:by IMSLP
T:by IMSLP
T:by IMSLP
T:by IMSLP
C:Francesco Paolo Tosti
Z:Gabriele d'Annunzio
Z:by IMSLP
%%score 1 { ( 2 5 ) | ( 3 4 ) }
L:1/8
Q:1/4=100
M:3/4
K:F
V:1 treble nm="Voice"
V:2 treble nm="Piano"
V:5 treble 
V:3 bass 
V:4 bass 
V:1
"^Allegretto moderato" z6 | z6 | z6 | z6 | z6 | z6 | z6 | z6 |"^Canto" z6 | z6 | z6 | z6 | %12
w: ||||||||||||
!mf!!>(! !^!c6-!>)! | c4 z2 |!<(! c4 e2 | d4 c2!<)! |!>(! d2 c4- | c4!>)! c2 | c4 e2 |!<(! d4 c2 | %20
w: Si,~||com\- m'a~|nu~ scio\-|ril\- lo~|* tu|tie\- ne~|na~ vuc\-|
!>(! d2!<)! c2 c2 | c c!>)! B2 A2 | c2 B2 A2 |!<(! A2 G2 A2!<)! |!>(! G2 F4-!>)! | F4 z2 | z6 | %27
w: chel\- la nu|po\- co~ po\- co\-|ril\- lo ap\-|pas\- su\- lia\-|tel\- la|||
 z6 | z6 | z6 | z6 | z6 | z6 | z6 | c6- | c2!<(! z2 c2 | (c4 e2)!<)! |!>(! d4 c2 | d2 c4-!>)! | %39
w: |||||||Meh,~|* dam\-|mil\- _|lo,~ dam\-|mi\- llo,~|
 c2 z2!<(! c2 | c4 e2 | d4!<)! c2 | d2 c2 c2 |!>(! c c B2 A2 | c2 B2!>)! A2 |!<(! A A G2 A2!<)! | %46
w: _ \-è|com\- m'a~|na\- ru\-|sel\- la~ dam\-|mil\- lo~ nu~ va\-|sil\- lo,~ dam\-|mil\- lo,~ Can\- ne\-|
!>(! G2 F4-!>)! | F2 z2 z2 | z6 | z2 z2 A2 | G4 A2 | =B4 e2 | d2 c4- | %53
w: tel\- la!~|||Dam\-|mil\- loe~|pi\- glia\-|til\- lo.~|
 c2 z2"^cresc." !courtesy!_B2 | A4 =B2 | ^c4 f2 | e2 d4- | !breath!d4!f! d2 | g4 f2 | e4 d2 | d6 | %61
w: * nu|va\- so|pic\- ce\-|ril\- lo,~|* nu|va\- so|pic\- ce\-|ril\-|
 c6 |!<(! e4 d2 | d2{ed} c2 B2!<)! |!>(! A6!>)! | A2 z2!<(! A2 | c4!<)!!>(! B2 | A4 G2 | %68
w: lo,|com\- m'a~|che\- sta vuc\-|chel\-|la, che|pa\- re\-|na ru\-|
"^poco rit. . . . . . ."[Q:1/4=90] f6!>)! | c2 !fermata!z2"^a tempo"[Q:1/4=100] c2 | c c B2 A2 | %71
w: sel\-|la nu|po\- co po\- co\-|
!>(! c2 B2 A2 | A2 G2 A2 | G2 F4- | F6-!>)! | F z z2 z2 | z6 | z6 | z6 | c6- |"^dim." c B B B B A | %81
w: ril\- lo ap\-|pas\- su\- lia\-|tel\- la...~||||||Si~|* tu~ tie\- ne na vuc\-|
 A4 A2- | A ^F F F F F | G2 G2 G2 |"^poco rit."[Q:1/4=90] B2 A2 A2 |{A} F4 F2- | F6- | F2 z2 z2 | %88
w: chel la|* nu po\- co po\- co\-|ril\- lo ap\-|pas\- su\- lia\-|tel\- la...~|||
 z6 | z6 | z6 | z6 |] %92
w: ||||
V:2
!mf! (!>![fa]6- | a3/2g/4a/4!<(! g2- g3/2f/4g/4 | f2- f3/2e/4f/4 e2-!<)! | %3
!f! e3/2d/4f/4 d2- d3/2c/4d/4 |!<(! c6- | (c3/2)d/4e/4 d4!<)! |!>(! B6- | B3/2A/4B/4 A4!>)! | %8
 F2 C4) |!p! z2!<(! [A,C]4 | z2 [A,C]4!<)! |!>(! z2 [A,C]4 | z2!>)! [A,C]4 | (!>!^D6 |!<(! E6) | %15
 (B6!<)! |!>(! A6)!>)! | (!>!^D6 | E6) |!<(! (B6 |!>(! A6)!<)!!>)! | (!>!^F6 | G6) |!<(! (E6!<)! | %24
!>(! G2 F4-!>)! | F4) z2 |!mf! (!>![fa]6- | a3/2g/4a/4 g2- g3/2f/4g/4 | f2- f3/2e/4f/4 e2- | %29
!>(! e3/2d/4f/4 d2- d3/2c/4d/4!>)! |!<(! A6-!<)! | A2) z2 z2 |!p! z2!>(! [A,C]4 | z2 [A,C]4!>)! | %34
 z2 [A,C]4 | (!>!^D6 | E6) |!>(! (B6 | A6)!>)! | (!>!^D6 | E6) | (B6 | A6) |!>(! (!>!^F6!>)! | %44
 G6) |!>(! (E6!>)! |!>(! G2 F4-!>)! | F2)!<(! z2 z2 | z2 [A,C]4!<)! | z2 [A,C]2!<(! (!>![A,A]2 | %50
 [G,G]4 [A,c]2!<)! | [=B,=B]4 [Ee]2 | [Dd]2 [Cc]4- | [Cc]4) ([!courtesy!_B,!courtesy!_B]2 | %54
 [A,A]4 [=B,=B]2 | [^Cc]4 [Ff]2 | [Ee]2 [Dd]4- | [Dd]4)!f! ([!courtesy!=Dd]2 | [Gg]4 [Ff]2 | %59
 [F^Ge]4 [FGd]2 | [FAd]6- | [FAd]6) |!<(! (e4 d2 | d2{ed} c2 B2!<)! |!>(! A6!>)! |!<(! A6) | %66
 (c4!>(! B2!<)!!>)! | A4 G2 |"^col canto" f6 | c2) !fermata!z2"^a tempo" z2 | %70
!p! ([_Ec][Ec] [DB]2 [CA]2 | [_Ec]2 [DB]2 [CA]2 | [CA]2 [B,G]2 [CA]2 | [B,G]2 [A,F-]4 | (F6 | %75
!<(! F6-)!<)! | F2) z2 z2 |!mf! (!>![fa]6- | a3/2g/4a/4!<(! g2- g3/2f/4g/4 | %79
 f2- f3/2e/4f/4 e2!<)! |"_dim." e3/2d/4f/4 d2- d3/2c/4d/4 |!<(! c6- | (c3/2)d/4e/4 d4!<)! | B6- | %84
!>(! [DEB]2 [CEA]4!>)! |"^a tempo diminuendo"!>(! F6- | F6- | F6- |"^poco rit." F6) | [FA]6- | %90
 [FA]6- | [FA]2 z2 z2!>)! |] %92
V:3
 z2 [A,C]4 | z2 [A,C]4 | z2 [B,C]4 | z2 [B,C]4 | z2 [A,C]4 | z2 [CD]4 | z2 [B,D]4 | z2 ([E,B,]4 | %8
 F,6 | C,6) | (F,6 | C,6) | (F,6 | ^F,6 | G,6) | (C,6 | F,6) | (!>!^F,6 | G,6) | (C,6 | F,6) | %21
 (D,6 | G,6) | (C,6 | G,6) | C,6 | z2 [A,C]4 | z2 [A,C]4 | z2 [B,C]4 | z2 [B,C]4 | z2 [A,C]4 | %31
 z2 [A,C]4 | (F,6 | C,6) | (F,6 | !>!^F,6 | G,6) | (C,6 | F,6) | (^F,6 | G,6) | (C,6 | F,6) | %43
 (D,6 | G,6) | (C,6 | F,6) | (C,6 | F,6) | C,6 | z2 G,4 | z2 G,4 | z2 G,4 | z2 G,4 | z2 A,4 | %55
 z2 A,4 | z2 A,4 | z2 A,4 | z2 B,4 | z2 =B,4 | z2 C2 C2 | z6 | z2 C2 C2 | C2 C2 C2 | z2 A,2 A,2 | %65
 z2 A,2 A,2 | G,,6 | B,,6 |"^poco rit." z2 C2 C2 | C2 !fermata!z2 z2 | (!>!^F,6 | G,6) | (C,6 | %73
 F,,6) | (C,6 | F,,6) | C,6 | z2 [A,C]4 | z2 [A,C]4 | z2 [B,C]4 | z2 [B,C]4 | z2 [A,C]4 | %82
 z2 [A,C]4 | z2 [B,C]4 |"^col canto" C,6 | F,6 | (C,6 | F,6) | C,6- |!pp! C,6- | C,6- | C,2 z4 |] %92
V:4
 F,6 | C,6 | G,6 | C,6 | F,6 | C,6 | G,6 | C,6 | x6 | x6 | x6 | x6 | x6 | x6 | x6 | x6 | x6 | x6 | %18
 x6 | x6 | x6 | x6 | x6 | x6 | x6 | x6 | F,6 | C,6 | G,6 | C,6 | (F,6 | C,6) | x6 | x6 | x6 | x6 | %36
 x6 | x6 | x6 | x6 | x6 | x6 | x6 | x6 | x6 | x6 | x6 | x6 | x6 | x6 | =B,,6 | G,,6 | C,6 | G,,6 | %54
 ^C,6 | A,,6 | D,6 | D,6 | B,,6 | =B,,6 | C,6 | x6 | C,6- | C,6 | D,6- | D,6 | x6 | x6 | C,6- | %69
 C,2 z2 z2 | x6 | x6 | x6 | x6 | x6 | x6 | x6 | F,6 | C,6 | G,6 | C,6 | F,6 | C,6 | G,6 | C,6 | %85
 x6 | x6 | x6 | (C,6 | F,,6-) | F,,6- | F,,2 z2 z2 |] %92
V:5
 x6 | f>e e2- e>d | d2- d>c c2- | c>B B2- B>A | A6 | ^F6 | G6 | C6 | A,2 A,4 | x6 | x6 | x6 | x6 | %13
 z2 [A,C]4 | z2 [B,C]4 | z2 [CE]4 | z2 [CF]4 | z2 [A,C]4 | z2 [B,C]4 | z2 [CE]4 | z2 [CF]4 | %21
 z2 [CD]4 | z2 [B,D]4 | z2 [B,C]4 | z2 [A,C]4 | z2 [A,C]4 | x6 | f>e e2- e>d | d2- d>c c2- | %29
 c>B B2- B>A | F6- | F2 x4 | x6 | x6 | x6 | z2!<(! [A,C]4 | z2 [B,C]4!<)! | z2 [CE]4 | z2 [CF]4 | %39
 z2!<(! [A,C]4 | z2 [B,C]4 | z2 [CE]4!<)! | z2 [CF]4 | z2 [CD]4 | z2 [A,C]4 | z2 [B,C]4 | %46
 z2 [A,C]4 | z2 [A,C]4 | x6 | x6 | x6 | z2 [FG]2 z2 | z2 z2 [DG]2 | z2 [EG]2 z2 | z2 [EG]2 z2 | %55
 z2 [GA]2 z2 | z2 z2 [FA]2 | z2 [FA]2 z2 | z2 [Bd]2 z2 | x4 z2 | x6 | x6 | [FA]6 | [EB]6 | [EG]6 | %65
 [DF]6 | z2 D4 | z2 _D4 | [FA]6- | [FA]2 x4 | x6 | x6 | x6 | x6 | z2 [A,C]4 | z2 [A,C]4 | %76
 z2 [A,C]4 | x6 | f>e e2- e>d | d2- d>c c2 | c>B B2- B>A | A6 | ^F6 | G6 | x6 | A,2 [A,C]4 | %86
 z2 [A,C]4 | z2 [A,C]4 | z2 [A,C]4- | [A,C]6- | [A,C]6- | [A,C]2 z2 z2 |] %92

